!!!!SEGMENT: pl-wn--mus-iii-63-986--002_zelenski-wladyslaw--deux-mazourkas-op-31-ii.krn
!!!cenid: 18xx:3714
!!!COM: Żeleński, Władysław
!!!COM-rismID: pe41024455
!!!CDT:
!!!CNT:
!!!GTL: Deux Mazourkas op. 31
!!!OTL: II
!!!PDT:
!!!AGN:
!!!SMS-siglum: PL-Wn
!!!SMS-shelfmark: Mus.III.63.986
!!!SMS-shelfwork: 002 G
!!!SMS-variant:
!!!SMS-altvar:
!!!NIFC-rismSourceID:
!!!NIFC-islandoraID:
!!!URL-pdf-islandora:
!!!URL-scan: https://polona.pl/item/deux-mazourkas-pour-le-piano-op-31,NTE2MTI3MDU/1/#info:metadata @EN{Scan on Polona} @PL{Skany w portalu Polona}
!!!ONB-nifc:
!!!AIN: 2 piano
!!!key: A
**kern	**fing	**dynam	**kern	**dynam
*part2	*part2	*part2	*part1	*part1
*staff2	*	*	*staff1	*
*I"Piano	*	*	*I"Piano	*
*I'pf	*	*	*I'pf	*
*ICklav	*	*	*ICklav	*
*Ipiano	*	*	*Ipiano	*
*clefF4	*	*	*clefG2	*
*k[f#c#g#]	*	*	*k[f#c#g#]	*
*A:	*	*	*A:	*
*M3/4	*	*	*M3/4	*
*>[A,A1,A2,B,B1,B2]	*	*	*>[A,A1,A2,B,B1,B2]	*
*ped	*	*	*	*
!	!	!	!LO:TX:B:t=Non troppo vivo, ma con gran brio.	!
(<16AA/	.	.	(16A/	p
=1!|:	=1!|:	=1!|:	=1!|:	=1!|:
!	!	!	!	!LO:HP:b:t=crescendo
4..E\	.	.	4..c#/ 4..e	<
16AA/	.	.	16A/	.
8.E/L	.	.	8.c#/L 8.e	.
16AA/Jk	.	.	16A/Jk	.
=2	=2	=2	=2	=2
8.E/L)	.	.	8.c#/L) 8.e	.
(<16AA/Jk	.	.	(16A/Jk	.
4.E\	.	.	4.c#/ 4.e	.
8AA/)	.	.	8A/	.
=3	=3	=3	=3	=3
(<(>8qqAAA/L	.	.	.	.
8qqAA/J)	.	.	.	.
4..E\	.	.	4..A/ 4..a	f
16AA/	.	.	16A/	.
8.E/L	.	.	8.c#/L 8.a	.
16AA/Jk	.	.	16A/Jk	.
=4	=4	=4	=4	=4
8.E/L)	.	.	8.c#/L) 8.a	.
(16AA/Jk	.	.	(16A/Jk	.
*Xped	*	*	*	*
4E\)	.	.	4c#/) 4a	.
4r	.	.	8r	.
.	.	.	(8e/	p
!!LO:LB:g=original	!	!	!
=5	=5	=5	=5	=5
4AAA/ 4AA	.	.	4.a/) 4.cc#	.
4E\ 4A 4c#	.	.	.	.
.	.	.	(8e/	.
4E\ 4G# 4d	.	.	8g#/L 8b	.
.	.	.	8dd/J	.
=6	=6	=6	=6	=6
4AA/	.	.	8a/L) 8cc#	.
.	.	.	16r	.
.	.	.	([16cc#/Jk	<
4E\ 4A 4c#	.	.	[2f#\)) [2a [2cc#] [2ff#	[[
8.E/L 8.A 8.c#	.	.	.	.
!	!	!	!	!
(16EE/Jk	.	<	.	.
=7	=7	=7	=7	=7
4AA/)	.	sfz	8.f#\L] 8.a] 8.cc#] 8.ff#]	.
.	.	.	(16e\K	.
4E\ 4A 4c#	.	[	8a\ 8cc#	<
.	.	.	8e\	.
4E\ 4G# 4d	.	.	8g#\ 8b	.
.	.	.	8dd\J	.
=8	=8	=8	=8	=8
4AA/	.	.	8a\L) 8cc#	.
.	.	.	16r	.
.	.	.	(16ee\Jk	.
4E\ 4A 4c#	.	.	[2a\) [2cc# [2aa	[[
8.E/L 8.A 8.c#	.	.	.	.
(>16CC#/Jk 16C#	.	< [	.	.
!!LO:LB:g=original	!	!	!
=9	=9	=9	=9	=9
4FF#/) 4F#	.	.	4.a\] 4.cc#] 4.aa]	f
4C#\ 4F# 4A	.	.	.	.
.	.	.	8g#\ 8gg#	.
4C#\ 4F# 4A	.	.	8f#/L 8ff#	.
.	.	.	8c#/J 8cc#	.
=10	=10	=10	=10	=10
4BB\ 4F#	.	.	8d/L 8dd	.
.	.	.	8e/J 8ee	.
(8d'\L	.	.	[2f#\ [2ff#	.
8c#'\	.	.	.	.
8B'\	.	.	.	.
8A'\J)	.	.	.	.
=11	=11	=11	=11	=11
*^	*	*	*	*
8G#/L	2.D\	.	.	4f#\] 4ff#]	.
16r	.	.	.	.	.
(16F#/Jk	.	.	.	.	.
4B/	.	.	.	(4.d/ 4.dd	.
8F#/L	.	.	.	.	.
8A/J)	.	.	.	8c#/ 8cc#	.
=12	=12	=12	=12	=12	=12
8.A^/L:	4EE\:	.	.	8.B/L) 8.b	.
(16E/Jk	.	.	.	(16e/Jk	.
4A/	4ryy	.	.	4B'/ 4b	.
8G#/L)	4ryy	.	.	4B#X'/ 4b#X	.
8F#'/J	.	.	.	.	.
*v	*v	*	*	*	*
=13	=13	=13	=13	=13
4AA/ 4E	.	.	4.c#/) 4.cc#	.
4E\ 4A 4c#	.	.	.	.
.	.	.	(8e/	p
4E\ 4G# 4d	.	.	8g#/L 8b	.
.	.	.	8dd/J	.
!!LO:LB:g=original	!	!	!
=14	=14	=14	=14	=14
4AA/	.	.	8a\L) 8cc#	.
.	.	.	16r	.
.	.	.	([<16cc#\Jk	<
4E\ 4A 4c#	.	.	[2f#\)) [2a [2cc#] [2ff#	.
8.E\L 8.A 8.c#	.	.	.	[
(<16EE\Jk	.	<[	.	.
=15	=15	=15	=15	=15
4AA/)	.	sfz	8.f#\L] 8.a] 8.cc#] 8.ff#]	.
.	.	.	(<16e\Jk	.
!	!	!LO:HP:a	!	!
4E\ 4A 4c#	.	<	8a/L 8cc#	.
.	.	.	8e/	.
4E\ 4G# 4d	.	.	8g#/ 8b	.
.	.	.	8dd/J	.
=16	=16	=16	=16	=16
4AA/	.	.	8a\L) 8cc#	.
.	.	.	16r	.
.	.	.	([<16ee\Jk	.
4E\ 4A 4c# 4e	.	[	[2cc#\)) [2ee] [2ccc#	.
8.E/L 8.A 8.c# 8.e	.	.	.	.
(16CC#/Jk 16C#	.	.	.	.
=17	=17	=17	=17	=17
*	*	*	*^	*
4FF#/) 4F#	.	.	8cc#\L] 8ee] 8ccc#]	8ryy	.
!	!	!	!LO:TX:b:i:t=espressivo	!	!
.	.	.	8b\J 8bb	8ryy	.
4F#\ 4c#	.	.	(>8aa/	4a\	.
.	.	.	4cc#/	.	.
4B\ 4f#	.	.	.	4a\	.
.	.	.	8dd#X/	.	.
!!LO:LB:g=original	!	!	!	!
=18	=18	=18	=18	=18	=18
.	.	.	8qdd#X/	.	.
4EE/	.	.	8gg#/L)	4r	.
.	.	.	16r	.	.
.	.	.	(16ff#/Jk	.	.
4E\ 4c#	.	.	4.ee/)	4e\	.
4E\ 4F#	.	.	.	4e\	.
.	.	.	(8a/	.	.
=19	=19	=19	=19	=19	=19
!	!	!	!LO:TX:b:i:t=leggiero	!	!
*>A	*	*	*	*	*
4EE/	.	.	(8ee/L	4r	.
.	.	.	8cc#/)	.	.
4E\ 4G#	.	.	(8dd/	4r	.
.	.	.	8b/)	.	.
4E\ 4B	.	.	(8f#/	4d\	.
.	.	.	8g#/J))	.	.
*	*	*	*v	*v	*
=20	=20	=20	=20	=20
*>A1	*	*	*	*
.	.	.	(8qb/	.
4AA\ 4E 4A	.	.	4d/) 4a	.
4AA^\ 4E 4A	.	.	4c#^/ 4a	.
8.r	.	.	8.r	.
!LO:TX:t=P:problem= łuk od 16AA do pierwszego taktu	!	!	!LO:TX:t=P:problem= łuk od 16A do pierwszego taktu	!
16AA/	.	.	16A/	p
=21:|!	=21:|!	=21:|!	=21:|!	=21:|!
*>A2	*	*	*	*
.	.	.	(8qd/	.
4AA\ 4E 4A	.	.	8.c#/L) 8.a	.
.	.	.	(16A/Jk	.
4r	.	.	8c#/L	.
.	.	.	8e/	.
4r	.	.	8a/	.
.	.	.	8b/J	.
!!LO:LB:g=original	!	!	!
=22	=22	=22	=22	=22
*>A	*	*	*	*
*	*	*	*^	*
8r	.	.	[<2.e/) [2.ee	2cc#\	.
(8AA\L	.	p <	.	.	.
8E\	.	.	.	.	.
8A\	.	.	.	.	.
8B\	3	.	.	8dd\L	.
8d\J	1	.	.	8b\J	.
=23	=23	=23	=23	=23	=23
8c#\L	2	.	2.e/_< 2.ee_	4cc#\	.
8A\	4	.	.	.	.
8G#\	5	.	.	8b\L	.
8B\	1	.	.	8dd\	.
8A\	.	.	.	8cc#\	.
8F#\J	.	[[	.	8a\J	.
*	*	*	*v	*v	*
=24	=24	=24	=24	=24
8E\L)	5	.	4e/] 4g# 4ee]	.
16r	.	.	.	.
(16E\Jk	3	.	.	.
!LO:TX:b:i:t=marcato	!	!	!	!
4D#X'\)	4	.	4a'\ 4ff#	f
4F#'\	.	.	4a'/ 4b	.
=25	=25	=25	=25	=25
*	*	*	*^	*
8r	.	.	[<2.e/ [2.ee	2cc#\	p
(8AA\L	.	.	.	.	.
8E\	.	.	.	.	.
8A\	.	.	.	.	.
8B\	.	.	.	8dd\L	.
8d\J	.	.	.	8b\J	.
=26	=26	=26	=26	=26	=26
8c#\L	.	.	2.e/_< 2.ee_	4cc#\	.
8A\	.	.	.	.	.
8G#\	.	.	.	8b\L	.
8B\	.	.	.	8dd\	.
8A\	.	.	.	8cc#\	.
8F#\J	.	.	.	8a\J	.
!!LO:LB:g=original	!	!	!	!	!
=27	=27	=27	=27	=27	=27
8E\L)	.	.	4e/] 4g# 4ee]	4ryy	.
16r	.	.	.	.	.
(16D#X\Jk	.	.	.	.	.
!LO:TX:b:i:t=marcato	!	!	!	!	!
4F#'\)	.	.	(8cc#/L	4a\	f
.	.	.	8dd#X/)	.	.
4BB'/	.	.	(8ee/	4a\	.
.	.	.	8ff#/J)	.	.
=28	=28	=28	=28	=28	=28
8r	.	.	2.e/ 2.ee	(2cc#\	p
(8AA\L	.	.	.	.	.
8E\	.	.	.	.	.
8A\	.	.	.	.	.
8B\	.	.	.	8dd\L	.
8d\J	.	.	.	8b\J)	.
=29	=29	=29	=29	=29	=29
8c#\L)	.	.	2.e/ 2.ee	(2cc#\	>
(8AA\	.	.	.	.	.
8E\	.	.	.	.	.
8A\	.	.	.	.	.
8B\	.	.	.	8dd\L	.
8d\J	.	.	.	8b\J)	.
=30	=30	=30	=30	=30	=30
*^	*	*	*	*	*
!	!	!	!	!	!	!LO:HP:b:t=dimin.
8e/L	[2.A\	.	.	[2.ee/	8cc#\L	] >
8d/	.	.	.	.	8b\	.
8c#/	.	.	.	.	8a\	.
8e/	.	.	.	.	8cc#\	.
8d/	.	.	.	.	8b\	.
8c#/J)	.	.	.	.	8a\J	.
=31	=31	=31	=31	=31	=31	=31
*ped	*	*	*	*	*	*
8e/	8A\]	.	.	8ee/]	8cc#\L	.
8r	8ryy	.	.	8r	(8a\	mf
4r	4ryy	.	.	4r	8ee\	.
.	.	.	.	.	8cc#\	.
4r	4ryy	.	.	4r	8a\	.
.	.	.	.	.	8e\J)	.
*Xped	*	*	*	*	*	*
*v	*v	*	*	*	*	*
!!LO:LB:g=original	!	!	!	!	!
=32	=32	=32	=32	=32	=32
4FF#/ 4C#	.	.	(8d#Xm/L	4A\	p
.	.	.	8c#/)	.	.
4FF#/ 4C#	.	.	(8d#/	4A\	.
.	.	.	8e/)	.	.
4FF#/ 4D#X	.	.	(8f#/	4A\	.
.	.	.	8e/J)	.	.
=33	=33	=33	=33	=33	=33
4CC#/ 4GG# 4E	.	.	8d#X/L	4G#\	.
.	.	.	16r	.	.
.	.	.	(16e/Jk	.	.
4CC#/ 4GG# 4E	.	.	4c#'/)	4G#\	.
4CC#/ 4GG# 4E	.	.	4G#'/ 4c# 4g#	4ryy	sfz
=34	=34	=34	=34	=34	=34
4FF#/ 4C#	.	.	(8d#Xm/L	4A\	p
.	.	.	8c#/)	.	.
4FF#/ 4C#	.	.	(8d#/	4A\	.
.	.	.	8e/)	.	.
4FF#/ 4D#X	.	.	(8f#/	4A\	.
.	.	.	8e/J)	.	.
=35	=35	=35	=35	=35	=35
4CC#/ 4GG# 4E	.	.	8d#X/L	4G#\	.
.	.	.	16r	.	.
.	.	.	(16e/Jk	.	.
4CC#/ 4GG# 4E	.	.	2c#/)	4G#\	.
4CC#/ 4GG# 4E	.	.	.	4G#\	.
*	*	*	*v	*v	*
=36	=36	=36	=36	=36
!	!	!	!LO:TX:b:i:t=espressivo	!
4FF#/	.	.	(>8A/L 8a	.
.	.	.	8B/J 8b	.
4C#\ 4A	.	.	4.c#/ 4.cc#	.
4BB#X\ 4A	.	.	.	.
.	.	.	8d#X/ 8dd#X	.
=37	=37	=37	=37	=37
4CC#/	.	.	8e/L 8ee	.
.	.	.	8d#X/J 8dd#X	.
4GG#/ 4E	.	.	4c#'/) 4cc#	.
4GG#/ 4E	.	.	4G#'/ 4g#	.
!!LO:LB:g=original	!	!	!	!
=38	=38	=38	=38	=38
4FF#/	.	.	(8B/L 8b	.
.	.	.	8A/J 8a	.
4C#\ 4A	.	.	4.c#/) 4.cc#	.
4C#\ 4F#	.	.	.	.
.	.	.	(8A/ 8a	.
=39	=39	=39	=39	=39
*	*	*	*^	*
(8.CC#/L	.	.	2.G#/) 2.g#	4r	<
16GG#/K	.	.	.	.	.
8C#/	.	.	.	4c#\ 4e	.
8D#X/	.	.	.	.	.
8E/	.	.	.	4c#\ 4e	.
8F#/J)	.	.	.	.	.
=40	=40	=40	=40	=40	=40
4C#\ 4G#	.	.	(8a#Xm/L	4e\	[ p
.	.	.	8g#/)	.	.
4C#\ 4G#	.	.	(8a#/	4e\	.
.	.	.	8b/)	.	.
4C#\ 4A#X	.	.	(8cc#/	4e\	.
.	.	.	8b/J)	.	.
=41	=41	=41	=41	=41	=41
4GG#\ 4D#X 4B	.	.	8a#X/L	4d#X\	.
.	.	.	16r	.	.
.	.	.	(16b/Jk	.	.
4GG#\ 4D# 4B	.	.	4g#/)	4d#\	.
4GG#\ 4D# 4B	.	.	4g#/ 4dd#X	4d#\	sfz
=42	=42	=42	=42	=42	=42
4C#\ 4G#	.	.	(8a#Xm/L	4e\	p
.	.	.	8g#/)	.	.
4C#\ 4G#	.	.	(8a#/	4e\	.
.	.	.	8b/)	.	.
4C#\ 4A#X	.	.	(8cc#/	4e\	.
.	.	.	8b/J)	.	.
=43	=43	=43	=43	=43	=43
4GG#\ 4D#X 4B	.	.	8a#X/L	4d#X\	.
.	.	.	16r	.	.
.	.	.	(16b/Jk	.	.
4GG#\ 4D# 4B	.	.	2g#/)	4d#\	.
4GG#\ 4D# 4B	.	.	.	4d#\	.
*	*	*	*v	*v	*
!!LO:LB:g=original	!	!	!	!
=44	=44	=44	=44	=44
4C#/	.	.	(8e\L 8ee	p
.	.	.	8f#\J 8ff#	.
4G#\ 4e	.	.	4.g#\ 4.gg#	.
4F##X\ 4e	.	.	.	.
.	.	.	8a#X\ 8aa#X	.
=45	=45	=45	=45	=45
4GG#/	.	.	8b\L 8bb	.
.	.	.	8a#X\J 8aa#X	.
4D#X\ 4B	.	.	4.g#\) 4.gg#	.
4D#\ 4B	.	.	.	.
.	.	.	(8d#X/ 8dd#X	.
=46	=46	=46	=46	=46
4C#/	.	.	8e\L 8ee	.
.	.	.	8f#\J 8ff#	.
4G#\ 4e	.	.	4g#\) 4gg#	.
4F##X\ 4e	.	.	4a#X'\ 4aa#X	.
=47	=47	=47	=47	=47
4GG#/	.	.	(8b\L 8bb	.
.	.	.	8a#X\J 8aa#X	.
4D#X\ 4B	.	.	4g#\) 4gg#	.
4D#\ 4B	.	.	4d#X'/ 4dd#X	.
=48	=48	=48	=48	=48
!	!	!	!	!LO:HP:b:t=crescendo
4C#/	.	.	8e/L 8ee	<
.	.	.	8f#/J 8ff#	.
4G#\ 4e	.	.	4.g#\ 4.gg#	.
(4BB#X/	.	.	.	.
.	.	.	8f#\ 8ff#	.
=49	=49	=49	=49	=49
4C#/)	.	.	8e\L 8ee	.
.	.	.	8f#\J 8ff#	.
4G#\ 4e	.	.	4.g#\ 4.gg#	.
(4Cn/	.	.	.	.
.	.	.	8f#\ 8ff#	.
!!LO:LB:g=original	!	!	!	!
=50	=50	=50	=50	=50
4BB/)	.	.	8g#\L 8gg#	.
.	.	.	8b\J 8bb	.
4E\ 4G# 4dn	.	.	4.g#\ 4.gg#	.
(4AA/	.	.	.	.
.	.	.	8f#\ 8ff#	.
=51	=51	=51	=51	=51
4GG#/)	.	.	8e'\L 8ee	.
.	.	.	8f#'\ 8ff#	.
4E\ 4B 4d	.	.	8g#'\ 8gg#	.
.	.	.	8a'\ 8aa	.
(4FFF#/ 4FF#	.	>	8b'\ 8bb	.
.	.	.	8cc#'\J 8ccc#	.
=52	=52	=52	=52	=52
*	*	*	*^	*
4EEE/) 4EE	.	.	4dd'\ 4ddd	4ryy	f
[2E\: [2B: [2d: [2g#:	.	]	8r	8ryy	[
!	!	!	!LO:TX:b:i:t=poco agitato	!	!
.	.	.	4.ddd/	(8bb\L	.
.	.	.	.	8aa\	.
.	.	.	.	8gg#\J)	.
=53	=53	=53	=53	=53	=53
4E\] 4B] 4d] 4g#]	.	.	2.bb/	(8gg#\L	.
.	.	.	.	8ff#\	.
8r	.	.	.	8ee\	.
*clefG2	*	*	*	*	*
(>8b/L	.	.	.	8gg#\	.
8a/	.	.	.	8ff#\	.
8g#/J)	.	.	.	8ee\J)	.
=54	=54	=54	=54	=54	=54
*^	*	*	*	*	*
(8fn/L:	4E\:	.	.	2.gg#/	(8dd\L	.
8e/	.	.	.	.	8cc#\	.
8d/	4r	.	.	.	8b\	.
8f/	.	.	.	.	8dd\	.
8e/	4r	.	.	.	8cc#\	.
8d/J)	.	.	.	.	8b\J)	.
*clefF4	*	*	*	*	*	*
!!LO:LB:g=original	!	!	!	!	!	!
=55	=55	=55	=55	=55	=55	=55
8cn/L	4E\	.	.	(2.dd#X/	8a\L	.
8B/	.	.	.	.	8g#\	.
8A/	4r	.	.	.	8f#\	.
8c/	.	.	.	.	8a\	.
8B/	4r	.	.	.	8g#\	.
8A/J	.	.	.	.	8f#\J	.
=56	=56	=56	=56	=56	=56	=56
8B:/L	4EE:\	.	.	4ee/)	8g#\L	.
8A/	.	.	.	.	8f#\	.
8G#/	4r	.	.	4r	8e\	.
8B/	.	.	.	.	8g#\	.
8A/	4r	.	.	[4b^/	8f#\	.
8G#/J	.	.	.	.	8e\J	.
=57	=57	=57	=57	=57	=57	=57
8B/L	[2.E^\	.	.	2b/]	8g#\L	.
8A/	.	.	.	.	8f#\	.
8G#/	.	.	.	.	8e\	.
8B/	.	.	.	.	8g#\	.
8A/	.	.	.	[4b^/	8f#\	.
8G#/J	.	.	.	.	8e\J	.
=58	=58	=58	=58	=58	=58	=58
8B/L	2.E\_	.	.	2.b/_	8g#\L	.
8A/	.	.	.	.	8f#\	.
8G#/	.	.	.	.	8e\	.
8d/J	.	.	.	.	8g#\	.
4r	.	.	.	.	8f#\	<
.	.	.	.	.	8e\J	.
=59	=59	=59	=59	=59	=59	=59
!	!	!	!	!LO:TX:b:i:t=riten.	!	!
8B/L	4.E\]	.	.	2b/]	8g#\L	.
8A/J	.	.	.	.	8f#\	.
8G#/	.	.	.	.	8e\	.
8r	8ryy	.	.	.	8g#\	.
(4EEE/ 4EE	4ryy	.	.	(4b#X^/	8f#\	.
.	.	.	.	.	8d\J	.
*v	*v	*	*	*	*	*
*	*	*	*v	*v	*
!!LO:LB:g=original	!	!	!	!
=60	=60	=60	=60	=60
!	!	!	!LO:TX:a:i:t=a tempo e risoluto	!
4AAA/) 4AA	.	.	4c#/) 4e 4cc#	ff
4E\ 4A 4c#	.	.	8r	.
.	.	.	(8e/	.
4E\ 4G# 4d	.	.	8g#/L 8b	.
.	.	.	8dd/J	.
=61	=61	=61	=61	=61
4AA/	.	.	8a/L) 8cc#	.
.	.	.	16r	.
.	.	.	((16cc#/Jk	.
!	!	!	!	!LO:DY:a
4E\ 4A 4c#	.	.	[2f#\)) [2a [2cc# [2ff#	sfz
8.E/L 8.A 8.c#	.	.	.	.
(16EEE/Jk 16EE	.	.	.	.
=62	=62	=62	=62	=62
4AAA/) 4AA	.	.	8.f#/L] 8.a] 8.cc#] 8.ff#]	.
.	.	.	(<16e/K	.
4E\ 4A 4c#	.	.	8a/ 8cc#	.
.	.	.	8e/	.
4E\ 4G# 4d	.	.	8g#/ 8b	.
.	.	.	8dd/J	.
=63	=63	=63	=63	=63
4AA/	.	.	8a\L) 8cc#	.
.	.	.	16r	.
.	.	.	16ee\Jk	.
!	!	!	!	!LO:DY:a
4E\ 4A 4c#	.	.	[2a\) [2cc# [2aa	sfz
8.E/L 8.A 8.c#	.	.	.	.
(16CC#/Jk 16C#	.	.	.	.
=64	=64	=64	=64	=64
4FF#/) 4F#	.	.	4.a\] 4.cc#] 4.aa]	.
4C#\ 4F# 4A	.	.	.	.
.	.	.	8g#\ 8gg#	.
4C#\ 4F# 4A	.	.	8f#/L 8ff#	.
.	.	.	8c#/J 8cc#	.
=65	=65	=65	=65	=65
4BB/	.	.	8d/L 8dd	.
.	.	.	8e/J 8ee	.
8D'\L 8d	.	.	[2f#\ [2ff#	.
8C#'\ 8c#	.	.	.	.
8BB'\ 8B	.	.	.	.
8AA'\J 8A	.	.	.	.
!!LO:LB:g=original	!	!	!	!
=66	=66	=66	=66	=66
8GG#/L 8G#	.	.	4f#\] 4ff#]	.
16r	.	.	.	.
(16F#/Jk	.	.	.	.
4B\	.	.	(>4.d/ 4.dd	.
8F#\L	.	.	.	.
8A\J)	.	.	8c#/ 8cc#	.
=67	=67	=67	=67	=67
*^	*	*	*	*
8.A^:/L	4EE:\	.	.	8.B/L) 8.b	.
(<16E/Jk	.	.	.	(16e/Jk	.
4A/	4ryy	.	.	4B'/ 4b	.
8G#/L)	8ryy	.	.	4B#X'/ 4b#X	.
8F#'/J	8ryy	.	.	.	.
*v	*v	*	*	*	*
=68	=68	=68	=68	=68
4AA/ 4E	.	.	4c#/) 4cc#	f
4E\ 4A 4c#	.	.	8r	.
.	.	.	8e/	.
4E\ 4G# 4d	.	.	8g#/L 8b	.
.	.	.	8dd/J	.
=69	=69	=69	=69	=69
4AA/	.	.	8a/L 8cc#	.
.	.	.	16r	.
.	.	.	[16cc#/Jk	.
4E\ 4A 4c#	.	.	[2f#\)) [2a [2cc#] [2ff#	.
8.E/L 8.A 8.c#	.	.	.	.
(16EEE/Jk 16EE	.	.	.	.
=70	=70	=70	=70	=70
4AAA/) 4AA	.	.	8.f#/L] 8.a] 8.cc#] 8.ff#]	.
.	.	.	(<16e/K	.
4E\ 4A 4c#	.	.	8a/ 8cc#	.
.	.	.	8e/	.
4E\ 4G# 4d	.	.	8g#/ 8b	.
.	.	.	8dd/J	.
=71	=71	=71	=71	=71
4AAA/ 4AA	.	.	8a\L) 8cc#	.
.	.	.	16r	.
.	.	.	([<16ee\Jk	.
4E\ 4A 4c# 4e	.	.	[2cc#\) 2ee_ [2ccc#	.
8.E/L 8.A 8.c# 8.e	.	.	.	.
(16CC#/Jk 16C#	.	.	.	.
!!LO:LB:g=original	!	!	!	!
=72	=72	=72	=72	=72
*	*	*	*^	*
4FF#/) 4F#	.	.	8cc#\L] 8ee] 8ccc#]	8ryy	.
!	!	!	!LO:TX:b:i:t=espress.	!	!
.	.	.	8b\J 8bb	8ryy	.
4F#\ 4c#	.	.	(8aa/	4a\	.
.	.	.	4cc#/	.	.
4B\ 4f#	.	.	.	4a\	.
.	.	.	8dd#X/	.	.
=73	=73	=73	=73	=73	=73
.	.	.	8qdd#X/	.	.
4EE/	.	.	8gg#/L)	4r	.
.	.	.	16r	.	.
.	.	.	(16ff#/Jk	.	.
4E\ 4c#	.	.	4.ee/)	4e\	.
4E\ 4F#	.	.	.	4e\	.
.	.	.	(8a/	.	.
=74	=74	=74	=74	=74	=74
!	!	!	!LO:TX:b:i:t=leggiero	!	!
4EE/	.	.	(8ee/L	4r	.
.	.	.	8cc#/)	.	.
4E\ 4G#	.	.	(8dd/	4r	.
.	.	.	8b/)	.	.
4E\ 4B	.	.	(8f#/	4d\	.
.	.	.	8g#/J))	.	.
*	*	*	*v	*v	*
=75	=75	=75	=75	=75
.	.	.	(8qd/	.
4AA\ 4E 4A	.	.	8.c#/L) 8.b	.
.	.	.	(16A/Jk	.
4r	.	.	8c#/L	.
.	.	.	8e/	.
4r	.	.	8a/	.
.	.	.	8b/J	.
=76	=76	=76	=76	=76
*	*	*	*^	*
8r	.	.	[<2.e/ [2.ee	2cc#\)	p
(8AA\L	.	<	.	.	.
8E\	.	.	.	.	.
8A\	.	.	.	.	.
8B\	.	.	.	8dd\L	.
8d\J)	.	[[	.	8b\J	.
=77	=77	=77	=77	=77	=77
(8c#\L	.	.	2.e/_< 2.ee_	4cc#\	.
8A\	.	.	.	.	.
8G#\	.	.	.	8b\L	.
8B\	.	.	.	8dd\	<
8A\	.	.	.	8cc#\	.
8F#\J	.	.	.	8a\J	.
*	*	*	*v	*v	*
=78	=78	=78	=78	=78
8E\L)	.	.	4e/] 4g# 4ee]	[
16r	.	.	.	.
(16E\Jk	.	.	.	.
!LO:TX:b:i:t=marc.	!	!	!	!
4D#X'\)	.	.	4a'\ 4ff#	f
4F#'\	.	.	4a'/ 4b	.
=79	=79	=79	=79	=79
*	*	*	*^	*
8r	.	.	[<2.e/ [2.ee	2cc#\	p
(8AA\L	.	<	.	.	.
8E\	.	.	.	.	.
8A\	.	.	.	.	.
8B\	.	.	.	8dd\L	.
8d\J)	.	.	.	8b\J	.
=80	=80	=80	=80	=80	=80
(8c#\L	.	.	2.e/_< 2.ee_	4cc#\	.
8A\	.	.	.	.	.
8G#\	.	.	.	8b\L	.
8B\	.	.	.	8dd\	.
8A\	.	.	.	8cc#\	.
8F#\J	.	[	.	8a\J	.
=81	=81	=81	=81	=81	=81
8E\L)	.	.	4e/] 4g# 4ee]	4ryy	.
16r	.	.	.	.	.
(16D#X\Jk	.	.	.	.	.
!LO:TX:b:i:t=marc.	!	!	!	!	!
4F#'\)	.	.	(8cc#/L	4a\	f
.	.	.	8dd#X/)	.	.
4BB'/	.	.	(8ee/	4a\	.
.	.	.	8ff#/J)	.	.
!!LO:LB:g=original	!	!	!	!	!
=82	=82	=82	=82	=82	=82
8r	.	.	2.e/ 2.ee	(2cc#\	p
(8AA\L	.	.	.	.	.
8E\	.	.	.	.	.
8A\	.	.	.	.	.
8B\	.	.	.	8dd\L	.
8d\J	.	.	.	8b\J)	.
=83	=83	=83	=83	=83	=83
8c#\L)	.	.	2.e/ 2.ee	(2cc#\	>
(8AA\	.	.	.	.	.
8E\	.	.	.	.	.
8A\	.	.	.	.	.
8B\	.	.	.	8dd\L	.
8d\J	.	.	.	8b\J)	.
=84	=84	=84	=84	=84	=84
*^	*	*	*	*	*
8e/L	[2.A\	.	.	[2.ee/	8cc#\L	]
8d/	.	.	.	.	8b\	.
8c#/	.	.	.	.	8a\	.
8e/	.	.	.	.	8cc#\	.
8d/	.	.	.	.	8b\	.
8c#/J	.	.	.	.	8a\J	.
=85	=85	=85	=85	=85	=85	=85
!	!	!	!	!	!	!LO:HP:b:t=dimin.
8e/L	2.A\_	.	.	2.ee/]	8cc#\L	>
8d/	.	.	.	.	8b\	.
8c#/	.	.	.	.	8a\	.
8e/	.	.	.	.	8cc#\	.
8d/	.	.	.	.	8b\	.
8c#/J	.	.	.	.	8a\J	.
*	*	*	*	*v	*v	*
=86	=86	=86	=86	=86	=86
.	.	.	.	8qcc#/	>
*ped	*	*	*	*	*
8e/)	8A\]	.	.	[2.ee^\	.
8r	8ryy	.	.	.	.
4r	4ryy	.	.	.	.
4r	4ryy	.	.	.	.
*v	*v	*	*	*	*
=87	=87	=87	=87	=87
2.r	.	.	2.ee\]	]]
*Xped	*	*	*	*
=88||	=88||	=88||	=88||	=88||
*k[]	*	*	*k[]	*
!LO:TX:b:i:t=una corda	!	!	!LO:TX:a:i:t=piu tranquillo	!
8D\L 8A	.	.	8f/L 8ee	pp
8D\J 8A	.	.	8f/J 8dd	.
!	!	!	!LO:TX:b:i:t=e poco rubato	!
4D\ 4A	.	.	4f/ 4a	.
8D\L 8A	.	.	8f/L 8b	.
8D\J 8A	.	.	8f/J 8cc	.
=89	=89	=89	=89	=89
8D\L 8G	.	.	8f/L 8b	.
8D\J 8G	.	.	8f/J 8ee	.
4D\ 4G	.	.	4f/ 4dd	.
8D\L 8G	.	.	8f/L 8g	.
8D\J 8G	.	.	8f/J 8a	.
=90	=90	=90	=90	=90
8C\L 8G	.	.	8e/L 8b	.
8C\J 8G	.	.	8e/J 8dd	.
4C\ 4G	.	.	4e/ 4cc	.
4C\ 4G	.	.	4e/	.
=91	=91	=91	=91	=91
8C\L 8F#X	.	.	8e/L 8f#X	.
8C\J 8F#	.	.	8e/J 8b	.
2C;\ 2F#	.	.	2e;/ 2a	.
=92	=92	=92	=92	=92
*^	*	*	*^	*
!	!	!	!	!LO:TX:b:i:t=semplice e molto	!	!
8B/L	[2.BB\	.	.	(8g/L	2e\	.
8A/J	.	.	.	8a/J	.	.
4G/	.	.	.	4b/	.	.
4E/	.	.	.	8dd/L	4g\	.
.	.	.	.	8cc/J	.	.
=93	=93	=93	=93	=93	=93	=93
8F#X/L	2.BB\]	.	.	2a/	4g\	.
8G/J	.	.	.	.	.	.
4A/	.	.	.	.	[2f#X\	.
.	.	.	.	8qcc/	.	.
8d/L	.	.	.	8b/L	.	.
8c/J	.	.	.	8a/J)	.	.
!!LO:LB:g=original	!	!	!	!	!	!
=94	=94	=94	=94	=94	=94	=94
8B/L	[2.BB\	.	.	(8g/L	4f#\]	.
8A/J	.	.	.	8a/J	.	.
4G/	.	.	.	4b/	4e\	.
4E/	.	.	.	8dd/L	[4g\	.
.	.	.	.	8cc/J	.	.
=95	=95	=95	=95	=95	=95	=95
8F#X/L	2.BB\_	.	.	2a/	4g\]	.
8G/J	.	.	.	.	.	.
4A/	.	.	.	.	[2f#X\	.
(4d^/	.	.	.	8cc/L	.	.
.	.	.	.	8b/J)	.	.
=96	=96	=96	=96	=96	=96	=96
!	!	!	!	!LO:TX:b:i:t=poco espress.	!	!
8d/L)	2.BB\]	.	.	(2g/	4f#\]	.
16r	.	.	.	.	.	.
(16G/Jk	.	.	.	.	.	.
4c/	.	.	.	.	2e\	.
4F#X/	.	.	.	8b/L	.	.
.	.	.	.	8a/J)	.	.
=97	=97	=97	=97	=97	=97	=97
8B/L	(4BB\	.	.	(8f#X/L	4d#X\	>
8A/J	.	.	.	8g/J	.	.
4G/)	4E\)	.	.	4e\)	2ryy	]
4r	4r	.	.	(4ee^\	.	.
*v	*v	*	*	*	*	*
*	*	*	*v	*v	*
=98:|!|:	=98:|!|:	=98:|!|:	=98:|!|:	=98:|!|:
!	!	!	!LO:TX:b:i:t=sotto voce	!
4GG/	.	.	(4.ee\	.
(4G'\ 4B 4f	.	.	.	.
.	.	.	8dd\)	.
4G'\ 4c 4f	.	.	8a\L	.
.	.	.	8cc\J	.
=99	=99	=99	=99	=99
4G'\ 4d 4f	.	.	8b\L	.
.	.	.	8ee\	.
4G'\ 4B 4f	.	.	8dd\	.
.	.	.	8b\	.
4G'\ 4c 4f	.	.	8a\	.
.	.	.	8cc\J	.
!!LO:LB:g=original	!	!	!	!
=100	=100	=100	=100	=100
4G'\ 4d 4f	.	.	8b\L	.
.	.	.	8ee\	.
4G'\ 4B 4f	.	.	8dd\	.
.	.	.	8b\	.
4G'\) 4d 4f	.	.	8a\	.
.	.	.	8b\J	.
=101	=101	=101	=101	=101
4C/	.	.	8g\L)	.
.	.	.	16r	.
.	.	.	(16ff\Jk 16aa	.
4G\ 4e	.	.	[2ee\ [2gg	.
4G\ 4e	.	.	.	.
=102	=102	=102	=102	=102
4DD/	.	.	8ee\L] 8gg]	.
.	.	.	8dd\J 8ff	.
4F\ 4B-X 4d	.	.	4f/)	.
4F\ 4B- 4d	.	.	([4b-X\ [4dd	.
=103	=103	=103	=103	=103
4EE/	.	.	8b-\L] 8dd]	.
.	.	.	8a\ 8cc	.
4E\ 4A 4c	.	.	8e\)	.
.	.	.	16r	.
.	.	.	16dd\Jk 16ff	.
4E\ 4A 4c	.	.	([4cc\ [4ee	.
=104	=104	=104	=104	=104
4EE/	.	.	8cc\L] 8ee]	.
.	.	.	8b\J 8dd	.
(4c'\ 4e	.	.	4f#X'/ 4a	.
4B'\) 4d	.	.	4g#X'/ 4b	.
=105	=105	=105	=105	=105
8r	.	.	4a/) 4cc	<
(8AA\L 8E	.	.	.	.
8A\	.	.	4r	.
8B\	.	.	.	.
8c\	.	.	([4ee^\	[[
8e\J	.	.	.	.
!!LO:LB:g=original	!	!	!	!
=106	=106	=106	=106	=106
*^	*	*	*	*
!	!	!	!	!LO:TX:i:b:t=ten.	!
2g/)	4r	.	.	4.ee\]	.
.	4D\ 4A	.	.	.	.
.	.	.	.	8dd\	.
(8f/L	4r	.	.	8a\L	.
8e/J	.	.	.	8cc\J	.
=107	=107	=107	=107	=107	=107
2d/)	4r	.	.	8b\L	.
.	.	.	.	8ee\	.
.	4GG\ 4D	.	.	8dd\	.
.	.	.	.	8b\	.
(8c/L	4r	.	.	8a\	.
8e/J	.	.	.	8cc\J	.
=108	=108	=108	=108	=108	=108
2d/)	4r	.	.	8b\L	.
.	.	.	.	8ee\	.
.	4GG\ 4D	.	.	8dd\	.
.	.	.	.	8b\	.
(4f/	4r	.	.	8a\	.
.	.	.	.	8b\J	.
=109	=109	=109	=109	=109	=109
2e/)	4r	.	.	8g\L)	.
.	.	.	.	16r	.
.	.	.	.	16ff\Jk 16aa	.
.	4C\ 4G	.	.	2ee;\ [2gg	.
(4b-X^;</	4r	.	.	.	.
*v	*v	*	*	*	*
=110	=110	=110	=110	=110
4a/)	.	.	8cc\L 8gg]	.
*ped	*	*	*	*
.	.	.	16r	.
.	.	.	(16a\Jk 16ff	.
8r	.	.	4cc\ 4aa	.
(8FF/L	.	.	.	.
8C/	.	.	[4a\ [4ff	.
8A/J	.	.	.	.
*Xped	*	*	*	*
!!LO:LB:g=original	!	!	!	!
=111	=111	=111	=111	=111
*ped	*	*	*	*
(2.B\)	.	.	8a\L]) 8ff]	.
.	.	.	16r	.
.	.	.	(16g\Jk 16ee	.
.	.	.	4b\ 4gg	.
.	.	.	[4g\ [4ee	.
*Xped	*	*	*	*
=112	=112	=112	=112	=112
*ped	*	*	*	*
4BB/)	.	.	8g\L]) 8ee]	.
.	.	.	16r	.
.	.	.	(16f#X\Jk 16dd#X	.
8r	.	.	4a\ 4ff#X	.
(8F#X\L	.	.	.	.
8A\	.	.	[4f#/ [4dd#	.
8c\J	.	.	.	.
=113	=113	=113	=113	=113
*Xped	*	*	*	*
8B\L)	.	.	4f#/] 4dd#]	.
16r	.	.	.	.
(16G\Jk	.	.	.	.
4E\)	.	.	4g\) 4ee	.
4r	.	.	4ee^\	.
=114	=114	=114	=114	=114
8r	.	.	8f/L 8ee	pp
8D\ 8A	.	.	8f/J 8dd	.
4D\ 4c	.	.	4f/ 4a	.
8D\L 8B	.	.	8f/L 8g 8b	.
8D\J 8A	.	.	8f/J 8g 8cc	.
=115	=115	=115	=115	=115
8D\L 8G	.	.	8f/L 8g 8b	.
8C\J 8G	.	.	8f/J 8g 8ee	.
8BB\L 8G	.	.	4f/ 4g 4dd	.
16r	.	.	.	.
16GG\Jk	.	.	.	.
8BB\L 8G	.	.	8f/L 8g	.
8C\J 8G	.	.	8f/J 8a	.
!!LO:LB:g=original	!	!	!	!
=116	=116	=116	=116	=116
*^	*	*	*	*
8D\L 8G	2ryy	.	.	8f/L 8g 8b	.
8BB\J 8G	.	.	.	8f/J 8g 8dd	.
4C\ 4G	.	.	.	4e/ 4g 4cc	.
(4G/	8C\L	.	.	(>[4e/	.
.	8AA\J	.	.	.	.
=117	=117	=117	=117	=117	=117
8F#X/L)	8C\L	.	.	8e/L]) 8f#X	.
8F#/J	8BB\J	.	.	8e/J 8b	.
2F#/	2C\	.	.	2e/ 2a	.
=118	=118	=118	=118	=118	=118
*	*	*	*	*^	*
!	!	!	!	!LO:TX:b:i:t=molto legato	!	!
8B/L	[2.BB\	.	.	8g/L	2e\	.
8A/J	.	.	.	8a/J	.	.
4G/	.	.	.	4b/	.	.
4E/	.	.	.	8dd/L	[4g\	.
.	.	.	.	8cc/J	.	.
=119	=119	=119	=119	=119	=119	=119
8F#X/L	2.BB\]	.	.	2a/	4g\]	.
8G/J	.	.	.	.	.	.
4A/	.	.	.	.	[2f#X\	.
.	.	.	.	8qcc/	.	.
8d/L	.	.	.	8b/L	.	.
8c/J	.	.	.	8a/J	.	.
=120	=120	=120	=120	=120	=120	=120
8B/L	[2.BB\	.	.	8g/L	4f#\]	.
8A/J	.	.	.	8a/J	.	.
4G/	.	.	.	4b/	4e\	.
4E/	.	.	.	8dd/L	[4g\	.
.	.	.	.	8cc/J	.	.
=121	=121	=121	=121	=121	=121	=121
8F#X/L	2.BB\_	.	.	2a/	4g\]	.
8G/J	.	.	.	.	.	.
4A/	.	.	.	.	[2f#X\	.
[4d/	.	.	.	8cc/L	.	.
.	.	.	.	8b/J	.	.
!!LO:LB:g=original	!	!	!	!	!	!
=122	=122	=122	=122	=122	=122	=122
*>B	*	*	*	*	*	*
8d/L]	2.BB\]	.	.	(2g/	4f#\]	.
16r	.	.	.	.	.	.
(16G/Jk	.	.	.	.	.	.
4c/	.	.	.	.	(2e\	.
4F#X/	.	.	.	8b/L	.	.
.	.	.	.	8a/J)	.	.
=123	=123	=123	=123	=123	=123	=123
*>B1	*	*	*	*	*	*
8B/L	(4BB\	.	.	(8f#X/L	4d#X\	.
8A/J	.	.	.	8g/J	.	.
4G/)	4E\)	.	.	4e/))	4e\	.
4r	4ryy	.	.	4ee\	4ryy	.
=124:|!	=124:|!	=124:|!	=124:|!	=124:|!	=124:|!	=124:|!
*>B2	*	*	*	*	*	*
!LO:TX:t=P:problem= łuk widoczny przy 8B, brak początku	!	!	!	!	!LO:TX:t=P:problem= łuk widoczny przy 4e, brak początku	!
8B/L	[2.BB\	.	.	2f#X/	4e\	.
16r	.	.	.	.	.	.
(<16F#X/Jk	.	.	.	.	.	.
4B/)	.	.	.	.	2d\	.
4E/	.	.	.	8a/L	.	.
.	.	.	.	8g/J	.	.
=125	=125	=125	=125	=125	=125	=125
*>B	*	*	*	*	*	*
8A/L	2.BB\_	.	.	[2.e/	4d\	.
16r	.	.	.	.	.	.
(<16E/Jk	.	.	.	.	.	.
4A/)	.	.	.	.	[2c\	.
4G/	.	.	.	.	.	.
=126	=126	=126	=126	=126	=126	=126
!LO:TX:b:i:t=riten.	!	!	!	!	!	!
!LO:TX:t=P:problem= 8F# i 16B mają wspólną belkę	!	!	!	!	!	!
8F#X/L	2.BB\]	.	.	2c/] 2e]	8.ryy	.
!LO:N:vis=16	!	!	!	!	!	!
8r	.	.	.	.	.	.
!LO:TX:i:b:t=m.d.	!	!	!	!	!	!
.	.	2	.	.	(<16B</	.
4ryy	.	1	.	.	4A</)	.
!LO:TX:i:b:t=m.s.	!	!	!	!	!	!
(<4D#Xt;</	.	.	.	4f#X;/	8B\L	.
.	.	.	.	.	8A\J	.
*v	*v	*	*	*	*	*
*	*	*	*v	*v	*
16qqC#X/LL)	.	.	.	.
16qqD#/JJ	.	.	.	.
=127	=127	=127	=127	=127
*ped	*	*	*	*
!	!	!	!LO:TX:a:i:t=a tempo e	!
4EE/	.	.	4..G#X/ 4..e	.
2BB/ 2E	.	.	.	.
.	.	.	(16B/	.
.	.	.	8.d#X/L) 8.f#X	.
.	.	.	(16B/Jk	.
!!LO:LB:g=original	!	!	!	!
=128	=128	=128	=128	=128
4EE/	.	.	8e/L) 8g#X	.
.	.	.	16r	.
!	!	!	!LO:TX:a:i:t=sempre. piu animato	!
.	.	.	(16B/Jk	.
4BB\ 4G#X	.	.	4c#X/) 4e	.
4BB^>\ 4F#X	.	.	4d#X'^>/ 4f#X 4b	.
=129	=129	=129	=129	=129
4EE/	.	.	4..e/ 4..g#X	.
2BB/ 2E	.	.	.	.
.	.	.	(16B/	.
.	.	.	8.d#X/L) 8.f#X	.
.	.	.	(16B/Jk	.
=130	=130	=130	=130	=130
4EE/	.	.	8e/L) 8g#X	.
.	.	.	16r	.
.	.	.	(16B/Jk	.
4BB\ 4G#X	.	.	4c#X'/) 4e	.
4BB^\ 4F#X	.	.	4d#X'^>/ 4f#X 4b	.
=131	=131	=131	=131	=131
!	!	!	!	!LO:HP:b:t=crescendo
4EE/	.	.	8e/L 8g#X	<
.	.	.	16r	.
.	.	.	(16B/Jk	.
4BB\ 4G#X	.	.	4c#X'/) 4e	.
4BB\ 4F#X	.	.	4d#X'^>/ 4f#X 4b	.
=132	=132	=132	=132	=132
4EE/	.	.	8e/L 8g#X	.
.	.	.	16r	.
.	.	.	(16B/Jk	.
4BB\ 4G#X	.	.	4c#X'/) 4e	.
4BB\ 4F#X	.	.	4d#X'^>/ 4f#X 4b	.
!!LO:LB:g=original	!	!	!	!
=133	=133	=133	=133	=133
4EE/	.	.	8e/L 8g#X	.
.	.	.	16r	.
.	.	.	(16B/Jk	.
4BB\ 4G#X	.	.	4e'/) 4g#	.
4BB\ 4F#X	.	.	4f#X'^>/ 4a 4ddn	.
=134	=134	=134	=134	=134
4EE/	.	.	8g#X/L 8b	.
.	.	.	16r	.
.	.	.	(16e/Jk	.
4BB\ 4G#X	.	.	4g#/) 4b	.
[4E\ 4A [4B [4d	.	.	((4f#X^>\ [4b 4ff#X	.
=135	=135	=135	=135	=135
8E\] 8G#X 8B] 8d]	.	.	4..e/)) 4..b] 4..ee	f
8r	.	.	.	.
4r	.	.	.	.
.	.	.	(16e/	.
4r	.	.	8.g#X/L 8.b 8.ee	.
.	.	.	16e/Jk	.
=136	=136	=136	=136	=136
(4..BB/	.	.	4..g#X\ 4..b 4..ee	.
16EE/	.	.	16e/	.
8E\L)	.	.	8.g#/L 8.b 8.ee	.
16r	.	.	.	.
(16E\Jk	.	.	16e/Jk	.
=137	=137	=137	=137	=137
8d\)	.	.	4..g#X\) 4..b 4..ee	.
8r	.	.	.	.
4r	.	.	.	.
.	.	.	(16d/	.
4r	.	.	8.g#/L 8.b 8.ee	.
.	.	.	16d/Jk	.
=138	=138	=138	=138	=138
2.EEE^/ 2.EE	.	.	4..g#X\) 4..b 4..ee	ff
.	.	.	(16d/	.
.	.	.	8.g#\L 8.b 8.ee	.
.	.	.	16d\Jk)	.
!!LO:LB:g=original	!	!	!	!
=139||	=139||	=139||	=139||	=139||
*k[f#c#g#]	*	*	*k[f#c#g#]	*
*	*	*	*^	*
4AAA/ 4AA	.	.	4.a:/ 4.cc#: 4.ee:	4.c#:\	p
4E\ 4A 4c#	.	.	.	.	.
.	.	.	(8e/	8ryy	.
4E\ 4G# 4d	.	.	8g#/L 8b	8ryy	.
.	.	.	8dd/J	8ryy	.
*	*	*	*v	*v	*
=140	=140	=140	=140	=140
4AA/	.	.	8a/L) 8cc#	.
.	.	.	16r	.
.	.	.	([16cc#/Jk	<
4E\ 4A 4c#	.	.	[2f#\)) [2a [2cc#] [2ff#)	[[
8.E/L 8.A 8.c#	.	.	.	.
(16EE/Jk	.	<[	.	.
=141	=141	=141	=141	=141
4AA/)	.	sfz	8.f#/L] 8.a] 8.cc#] 8.ff#]	.
.	.	.	(<16e/K	.
4E\ 4A 4c#	.	.	8a/ 8cc#	<
.	.	.	8e/	.
4E\ 4G# 4d	.	.	8g#/ 8b	.
.	.	.	8dd/J	.
=142	=142	=142	=142	=142
4AA/	.	.	8a\L) 8cc#	.
.	.	.	16r	.
.	.	.	(16ee\Jk	.
4E\ 4A 4c#	.	.	[2a\) [2cc# [2aa	[[
8.E/L 8.A 8.c#	.	.	.	.
(16CC#/Jk 16C#	.	.	.	.
=143	=143	=143	=143	=143
4FF#/) 4F#	.	.	4.a\] 4.cc#] 4.aa]	f
4C#\ 4F# 4A	.	.	.	.
.	.	.	8g#\ 8gg#	.
4C#\ 4F# 4A	.	.	8f#\L 8ff#	.
.	.	.	8c#\J 8cc#	.
=144	=144	=144	=144	=144
4BB\ 4F#	.	.	8d/L 8dd	.
.	.	.	8e/J 8ee	.
8d'\L	.	.	[2f#\ [2ff#	.
8c#'\	.	.	.	.
8B'\	.	.	.	.
8A'\J	.	.	.	.
!!LO:LB:g=original	!	!	!	!
=145	=145	=145	=145	=145
*^	*	*	*	*
8G#/L	2.D\	.	.	4f#\] 4ff#]	.
16r	.	.	.	.	.
(16F#/Jk	.	.	.	.	.
4B/	.	.	.	(>4.d/ 4.dd	.
8F#/L	.	.	.	.	.
8A/J)	.	.	.	8c#/ 8cc#	.
=146	=146	=146	=146	=146	=146
8.A^:/L	4EE:\	.	.	8.B/L) 8.b	.
(16E/Jk	.	.	.	(16e/Jk	.
4A/	4ryy	.	.	4B'/ 4b	.
8G#/L)	4ryy	.	.	4B#X'/ 4b#X	.
8F#'/J	.	.	.	.	.
*v	*v	*	*	*	*
=147	=147	=147	=147	=147
4AA/ 4E	.	.	4.c#/) 4.cc#	.
4E\ 4A 4c#	.	.	.	.
.	.	.	(8e/	.
4E\ 4G# 4d	.	.	8g#/L 8b	.
.	.	.	8dd/J	.
=148	=148	=148	=148	=148
4AA/	.	.	8a/L) 8cc#	.
.	.	.	16r	.
.	.	.	([16cc#/Jk	.
4E\ 4A 4c#	.	.	[2f#\) [2a [2cc#] [2ff#)	.
8.E\L 8.A 8.c#	.	.	.	.
(16EE\Jk	.	<[	.	.
=149	=149	=149	=149	=149
4AA/)	.	sfz	8.f#/L] 8.a] 8.cc#] 8.ff#]	.
.	.	.	(<16e/Jk	.
4E\ 4A 4c#	.	.	8a/L 8cc#	<
.	.	.	8e/	.
4E\ 4G# 4d	.	.	8g#/ 8b	.
.	.	.	8dd/J	[[
!!LO:LB:g=original	!	!	!	!
=150	=150	=150	=150	=150
4AA/	.	.	8a\L) 8cc#	<
.	.	.	16r	.
.	.	.	((16ee\Jk	.
4E\ 4A 4c# 4e	.	.	[2cc#\)) [2ee [2ccc#	.
8.E/L 8.A 8.c# 8.e	.	.	.	.
(>16CC#/Jk 16C#	.	<	.	[
=151	=151	=151	=151	=151
*	*	*	*^	*
4FF#/) 4F#	.	[[	8cc#\L] 8ee] 8ccc#]	8ryy	.
!	!	!	!LO:TX:b:i:t=espress.	!	!
.	.	.	8b\J 8bb	8ryy	.
4F#\ 4c#	.	.	(8aa/	4a\	.
.	.	.	4cc#/	.	.
4B\ 4f#	.	.	.	4a\	.
.	.	.	8dd#X/	.	.
=152	=152	=152	=152	=152	=152
.	.	.	8qdd#X/	.	.
4EE/	.	.	8gg#/L)	4r	.
.	.	.	16r	.	.
.	.	.	(16ff#/Jk	.	.
4E\ 4c#	.	.	4.ee/)	4e\	.
4E\ 4F#	.	.	.	4e\	.
.	.	.	(8a/	.	.
=153	=153	=153	=153	=153	=153
!	!	!	!LO:TX:b:i:t=leggiero	!	!
4EE/	.	.	(8ee/L	4r	.
.	.	.	8cc#/)	.	.
4E\ 4G#	.	.	(8dd/	4r	.
.	.	.	8b/)	.	.
4E\ 4B	.	.	(8f#/	4d\	.
.	.	.	8g#/J))	.	.
*	*	*	*v	*v	*
=154	=154	=154	=154	=154
.	.	.	(8qd/	.
4AA\ 4E 4A	.	.	8.c#/L) 8.a	.
.	.	.	(16A/Jk	.
4r	.	.	8c#/L	.
.	.	.	8e/	.
4r	.	.	8a/	.
.	.	.	8b/J	.
!!LO:LB:g=original	!	!	!	!
=155	=155	=155	=155	=155
*	*	*	*^	*
8r	.	.	[<2.e/ [2.ee	2cc#\)	p
(8AA\L	.	<	.	.	.
8E\	.	.	.	.	.
8A\	.	.	.	.	.
8B\	.	.	.	8dd\L	.
8d\J	.	.	.	8b\J	.
=156	=156	=156	=156	=156	=156
8c#\L	.	.	2.e/_< 2.ee_	4cc#\	.
8A\	.	.	.	.	.
8G#\	.	.	.	8b\L	.
8B\	.	.	.	8dd\	.
8A\	.	.	.	8cc#\	.
8F#\J	.	[[	.	8a\J	.
*	*	*	*v	*v	*
=157	=157	=157	=157	=157
8E\L)	.	.	4e/] 4g# 4ee]	.
16r	.	.	.	.
(16E\Jk	.	.	.	.
!LO:TX:b:i:t=marcato	!	!	!	!
4D#X'\)	.	.	4a'\ 4ff#	f
4F#'\	.	.	4a'/ 4b	.
=158	=158	=158	=158	=158
*	*	*	*^	*
8r	.	.	[<2.e/ [2.ee	2cc#\	p
(8AA\L	.	<	.	.	.
8E\	.	.	.	.	.
8A\	.	.	.	.	.
8B\	.	.	.	8dd\L	.
8d\J	.	.	.	8b\J	.
=159	=159	=159	=159	=159	=159
8c#\L	.	.	2.e/_< 2.ee_	4cc#\	<
8A\	.	.	.	.	.
8G#\	.	.	.	8b\L	.
8B\	.	.	.	8dd\	.
8A\	.	.	.	8cc#\	.
8F#\J	.	[[	.	8a\J	[[
!!LO:LB:g=original	!	!	!	!	!
=160	=160	=160	=160	=160	=160
8E\L)	.	.	4e/] 4g# 4ee]	4ryy	.
16r	.	.	.	.	.
(16D#X\Jk	.	.	.	.	.
!LO:TX:b:i:t=marcato	!	!	!	!	!
4F#'\)	.	.	(8cc#/L	4a\	f
.	.	.	8dd#X/)	.	.
4BB'/	.	.	(8ee/	4a\	.
.	.	.	8ff#/J)	.	.
=161	=161	=161	=161	=161	=161
8r	.	.	2.e/ 2.ee	(2cc#\	p
(8AA\L	.	.	.	.	.
8E\	.	.	.	.	.
8A\	.	.	.	.	.
8B\	.	.	.	8dd\L	.
8d\J	.	.	.	8b\J)	.
=162	=162	=162	=162	=162	=162
8c#\L)	.	.	2.e/ 2.ee	(2cc#\	.
(8AA\	.	.	.	.	.
8E\	.	.	.	.	.
8A\	.	.	.	.	.
8B\	.	.	.	8dd\L	.
8d\J	.	.	.	8b\J)	.
=163	=163	=163	=163	=163	=163
*^	*	*	*	*	*
!	!	!	!	!	!	!LO:HP:b:t=dimin.
8e/L	[2.A\	.	.	[2.ee/	8cc#\L	>
8d/	.	.	.	.	8b\	.
8c#/	.	.	.	.	8a\	.
8e/	.	.	.	.	8cc#\	.
8d/	.	.	.	.	8b\	.
8c#/J	.	.	.	.	8a\J	.
=164	=164	=164	=164	=164	=164	=164
*ped	*	*	*	*	*	*
8e/)	8A\]	.	.	8ee/]	8cc#\L	.
8r	8ryy	.	.	8r	(8a\	mf
4r	4ryy	.	.	4r	8ee\	.
.	.	.	.	.	8cc#\	.
4r	4ryy	.	.	4r	8a\	.
.	.	.	.	.	8e\J	.
*Xped	*	*	*	*	*	*
*v	*v	*	*	*	*	*
!!LO:LB:g=original	!	!	!	!	!
=165	=165	=165	=165	=165	=165
4FF#/ 4C#	.	.	(8d#Xm/L	4A\)	p
.	.	.	8c#/)	.	.
4FF#/ 4C#	.	.	(8d#/	4A\	.
.	.	.	8e/)	.	.
4FF#/ 4D#X	.	.	(8f#/	4A\	.
.	.	.	8e/J)	.	.
=166	=166	=166	=166	=166	=166
4CC#/ 4GG# 4E	.	.	8d#X/L	4G#\	.
.	.	.	16r	.	.
.	.	.	(16e/Jk	.	.
4CC#/ 4GG# 4E	.	.	4c#'/)	4G#\	.
4CC#/ 4GG# 4E	.	.	4G#'/ 4c# 4g#	4ryy	sfz
=167	=167	=167	=167	=167	=167
4FF#/ 4C#	.	.	(8d#Xm/L	4A\	p
.	.	.	8c#/)	.	.
4FF#/ 4C#	.	.	(8d#/	4A\	.
.	.	.	8e/)	.	.
4FF#/ 4D#X	.	.	(8f#/	4A\	.
.	.	.	8e/J)	.	.
=168	=168	=168	=168	=168	=168
4CC#/ 4GG# 4E	.	.	8d#X/L	4G#\	.
.	.	.	16r	.	.
.	.	.	(16e/Jk	.	.
4CC#/ 4GG# 4E	.	.	2A/)	4G#\	.
4CC#/ 4GG# 4E	.	.	.	4G#\	.
*	*	*	*v	*v	*
=169	=169	=169	=169	=169
!	!	!	!LO:TX:b:i:t=espr.	!
4FF#/	.	.	(>8A/L 8a	.
.	.	.	8B/J 8b	.
4C#\ 4A	.	.	4.c#/ 4.cc#	.
4BB#X\ 4A	.	.	.	.
.	.	.	8d#X/ 8dd#X	.
=170	=170	=170	=170	=170
4CC#/	.	.	8e/L 8ee	.
.	.	.	8d#X/J 8dd#X	.
4GG#/ 4E	.	.	4c#'/) 4cc#	.
4GG#/ 4E	.	.	4G#'/ 4g#	.
!!LO:LB:g=original	!	!	!	!
=171	=171	=171	=171	=171
4FF#/	.	.	(8B/L 8b	.
.	.	.	8A/J 8a	.
4C#\ 4A	.	.	4.c#/) 4.cc#	.
4C#\ 4F#	.	.	.	.
.	.	.	(8A/ 8a	.
=172	=172	=172	=172	=172
*	*	*	*^	*
(8.CC#/L	.	.	2.G#/) 2.g#	4r	.
16GG#/K	.	.	.	.	.
8C#/	.	.	.	4c#\ 4e	.
8D#X/	.	.	.	.	.
8E/	.	.	.	4c#\ 4e	.
8F#/J)	.	.	.	.	.
=173	=173	=173	=173	=173	=173
4C#\ 4G#	.	.	(8a#Xm/L	4e\	p
.	.	.	8g#/)	.	.
4C#\ 4G#	.	.	(8a#/	4e\	.
.	.	.	8b/)	.	.
4C#\ 4A#X	.	.	(8cc#/	4e\	.
.	.	.	8b/J)	.	.
=174	=174	=174	=174	=174	=174
4GG#\ 4D#X 4B	.	.	8a#X/L	4d#X\	.
.	.	.	16r	.	.
.	.	.	(16b/Jk	.	.
4GG#\ 4D# 4B	.	.	4g#'/)	4ryy	.
!	!	!	!	!	!LO:DY:a
4GG#\ 4D# 4B	.	.	4d#'/ 4g# 4dd#X	4ryy	sfz
=175	=175	=175	=175	=175	=175
4C#\ 4G#	.	.	(8a#Xm/L	4e\	p
.	.	.	8g#/)	.	.
4C#\ 4G#	.	.	(8a#/	4e\	.
.	.	.	8b/)	.	.
4C#\ 4A	.	.	(8cc#/	4e\	.
.	.	.	8b/J)	.	.
=176	=176	=176	=176	=176	=176
4GG#\ 4D#X 4B	.	.	8a#X/L	4d#X\	.
.	.	.	16r	.	.
.	.	.	(16b/Jk	.	.
4GG#\ 4D# 4B	.	.	2g#/)	4d#\	.
4GG#\ 4D# 4B	.	.	.	4d#\	.
*	*	*	*v	*v	*
!!LO:LB:g=original	!	!	!	!
=177	=177	=177	=177	=177
4C#/	.	.	(8e\L 8ee	p
.	.	.	8f#\J 8ff#	.
4G#\ 4e	.	.	4.g#\ 4.gg#	.
4F##X\ 4e	.	.	.	.
.	.	.	8a#X\ 8aa#X	.
=178	=178	=178	=178	=178
4GG#/	.	.	8b\L 8bb	.
.	.	.	8a#X\J 8aa#X	.
4D#X\ 4B	.	.	4.g#\) 4.gg#	.
4D#\ 4B	.	.	.	.
.	.	.	(8d#X/ 8dd#X	.
=179	=179	=179	=179	=179
4C#/	.	.	8e\L 8ee	.
.	.	.	8f#\J 8ff#	.
4G#\ 4e	.	.	4g#'\) 4gg#	.
4F##X\ 4e	.	.	4a#X'\ 4aa#X	.
=180	=180	=180	=180	=180
4GG#/	.	.	(8b\L 8bb	.
.	.	.	8a#X\J 8aa#X	.
4D#X\ 4B	.	.	4g#\) 4gg#	.
4D#\ 4B	.	.	4d#X'/ 4dd#X	.
=181	=181	=181	=181	=181
!	!	!	!	!LO:HP:b:t=crescendo
4C#/	.	.	8e\L 8ee	<
.	.	.	8f#\J 8ff#	.
4G#\ 4e	.	.	4.g#\ 4.gg#	.
(4BB#X/	.	.	.	.
.	.	.	8f#\ 8ff#	.
=182	=182	=182	=182	=182
4C#/)	.	.	8e\L 8ee	.
.	.	.	8f#\J 8ff#	.
4G#\ 4e	.	.	4.g#\ 4.gg#	.
(4Cn/	.	.	.	.
.	.	.	8f#\ 8ff#	.
!!LO:LB:g=original	!	!	!	!
=183	=183	=183	=183	=183
4BB/)	.	.	8g#\L 8gg#	.
.	.	.	8b\J 8bb	.
4E\ 4G# 4d	.	.	4.g#\ 4.gg#	.
(4AA/	.	.	.	.
.	.	.	8f#\ 8ff#	.
=184	=184	=184	=184	=184
4GG#/)	.	.	8e'\L 8ee	.
.	.	.	8f#'\ 8ff#	.
4E\ 4B 4d	.	.	8g#'\ 8gg#	.
.	.	.	8a'\ 8aa	.
(4FFF#/ 4FF#	.	>]	8b'\ 8bb	.
.	.	.	8cc#'\J 8ccc#	.
=185	=185	=185	=185	=185
*	*	*	*^	*
4EEE/) 4EE	.	.	4dd'\ 4ddd	4ryy	f
[2E\: [2B: [2d: [2g#:	.	.	8r	8ryy	[
.	.	.	4.ddd/	(8bb\L	.
.	.	.	.	8aa\	.
.	.	.	.	8gg#\J)	.
=186	=186	=186	=186	=186	=186
4E\] 4B] 4d] 4g#]	.	.	2.bb/	(8gg#\L	.
.	.	.	.	8ff#\	.
!	!	!	!LO:TX:b:i:t=poco agitato	!	!
8r	.	.	.	8ee\	.
*clefG2	*	*	*	*	*
(>8b/L	.	.	.	8gg#\	.
8a/	.	.	.	8ff#\	.
8g#/J)	.	.	.	8ee\J)	.
=187	=187	=187	=187	=187	=187
*^	*	*	*	*	*
(8fn/L	4E\	.	.	2.gg#/	(8dd\L	.
8e/	.	.	.	.	8cc#\	.
8d/	4r	.	.	.	8b\	.
8f/	.	.	.	.	8dd\	.
8e/	4r	.	.	.	8cc#\	.
8d/J)	.	.	.	.	8b\J)	.
*clefF4	*	*	*	*	*	*
=188	=188	=188	=188	=188	=188	=188
8cn/L	4E\	.	.	(2.dd#X/	8a\L	.
8B/	.	.	.	.	8g#\	.
8A/	4r	.	.	.	8f#\	.
8c/	.	.	.	.	8a\	.
8B/	4r	.	.	.	8g#\	.
8A/J	.	.	.	.	8f#\J	.
!!LO:LB:g=original	!	!	!	!	!	!
=189	=189	=189	=189	=189	=189	=189
8B:/L	4EE:\	.	.	4ee/)	8g#\L	.
8A/	.	.	.	.	8f#\	.
8G#/	4r	.	.	4r	8e\	.
8B/	.	.	.	.	8g#\	.
8A/	4r	.	.	[4b^/	8f#\	.
8G#/J	.	.	.	.	8e\J	.
=190	=190	=190	=190	=190	=190	=190
8B/L	[2.E\	.	.	2b/]	8g#\L	.
8A/	.	.	.	.	8f#\	.
8G#/	.	.	.	.	8e\	.
8B/	.	.	.	.	8g#\	.
8A/	.	.	.	[4b^/	8f#\	.
8G#/J	.	.	.	.	8e\J	.
=191	=191	=191	=191	=191	=191	=191
8B/L	2.E\_	.	.	2.b/_	8g#\L	.
8A/	.	.	.	.	8f#\	.
8G#/	.	.	.	.	8e\	.
!	!	!	!	!	!	!LO:HP:b
8d/J	.	.	.	.	8g#\	<
4r	.	.	.	.	8f#\	.
.	.	.	.	.	8e\J	.
=192	=192	=192	=192	=192	=192	=192
!	!	!	!	!LO:TX:b:i:t=riten.	!	!
8B/L	4.E\]	.	.	2b/]	8g#\L	.
8A/J	.	.	.	.	8f#\	.
8G#/	.	.	.	.	8e\	.
8r	8ryy	.	.	.	8g#\	.
(4EEE/ 4EE	4ryy	.	.	(4b#X^/	8f#\	.
.	.	.	.	.	8d\J	.
*v	*v	*	*	*	*	*
*	*	*	*v	*v	*
=193	=193	=193	=193	=193
!	!	!	!LO:TX:a:i:t=a tempo e	!
4AAA/) 4AA	.	.	4c#/) 4e 4cc#	ff
4E\ 4A 4c#	.	.	8r	.
.	.	.	(<8e/	.
4E\ 4G# 4d	.	.	8g#/L 8b	.
.	.	.	8dd/J	.
!!LO:LB:g=original	!	!	!	!
=194	=194	=194	=194	=194
!	!	!	!LO:TX:a:i:t=risoluto	!
4AA/	.	.	8a\L) 8cc#	.
.	.	.	16r	.
.	.	.	([<16cc#\Jk	.
4E\ 4A 4c#	.	.	[2f#\)) [2a [2cc#] [2ff#	sfz
8.E/L 8.A 8.c#	.	.	.	.
(16EEE/Jk 16EE	.	.	.	.
=195	=195	=195	=195	=195
4AAA/) 4AA	.	.	8.f#\L] 8.a] 8.cc#] 8.ff#]	.
.	.	.	(<16e\Jk	.
4E\ 4A 4c#	.	.	8a/L 8cc#	.
.	.	.	8e/	.
4E\ 4G# 4d	.	.	8g#/ 8b	.
.	.	.	8dd/J	.
=196	=196	=196	=196	=196
4AA/	.	.	8a\L) 8cc#	.
.	.	.	16r	.
.	.	.	(16ee\Jk	.
!	!	!	!	!LO:DY:a
4E\ 4A 4c#	.	.	[2a\) [2cc# [2aa	sfz
8.E/L 8.A 8.c#	.	.	.	.
(16CC#/Jk 16C#	.	.	.	.
=197	=197	=197	=197	=197
4FF#/) 4F#	.	.	4.a\] 4.cc#] 4.aa]	.
4C#\ 4F# 4A	.	.	.	.
!	!	!	!LO:N:vis=16	!
.	.	.	8g#\ 8gg#	.
4C#\ 4F# 4A	.	.	8f#\L 8ff#	.
.	.	.	8c#\J 8cc#	.
=198	=198	=198	=198	=198
4BB/	.	.	8d/L 8dd	.
.	.	.	8e/J 8ee	.
8D'\L 8d	.	.	[2f#\ [2ff#	.
8C#'\ 8c#	.	.	.	.
8BB'\ 8B	.	.	.	.
8AA'\J 8A	.	.	.	.
=199	=199	=199	=199	=199
8GG#'/L 8G#	.	.	4f#\] 4ff#]	.
16r	.	.	.	.
(16F#/Jk	.	.	.	.
4B\	.	.	(>4.d/ 4.dd	.
8F#\L	.	.	.	.
8A\J)	.	.	8c#/ 8cc#	.
!!LO:LB:g=original	!	!	!	!
=200	=200	=200	=200	=200
*^	*	*	*	*
8.A^:/L	4EE:\	.	.	8.B/L) 8.b	.
(16E/Jk	.	.	.	(16e/Jk	.
4A/	4ryy	.	.	4B'/ 4b	.
8G#/L)	8ryy	.	.	4B#X'/ 4b#X	.
8F#/J	8rBByy	.	.	.	.
*v	*v	*	*	*	*
=201	=201	=201	=201	=201
4AA/ 4E	.	.	4c#/) 4cc#	f
4E\ 4A 4c#	.	.	8r	.
.	.	.	(<8e/	.
4E\ 4G# 4d	.	.	8g#/L 8b	.
.	.	.	8dd/J	.
=202	=202	=202	=202	=202
4AA/	.	.	8a\L) 8cc#	.
.	.	.	16r	.
.	.	.	([<16cc#\Jk	.
4E\ 4A 4c#	.	.	[2f#\)) [2a [2cc#] [2ff#	.
8.E/L 8.A 8.c#	.	.	.	.
(16EEE/Jk 16EE	.	.	.	.
=203	=203	=203	=203	=203
4AAA/) 4AA	.	.	8.f#/L] 8.a] 8.cc#] 8.ff#]	.
.	.	.	(<16e/K	.
4E\ 4A 4c#	.	.	8a/ 8cc#	.
.	.	.	8e/	.
4E\ 4G# 4d	.	.	8g#/ 8b	.
.	.	.	8dd/J	.
=204	=204	=204	=204	=204
4AAA/ 4AA	.	.	8a\L) 8cc#	.
.	.	.	16r	.
.	.	.	([<16ee\Jk	.
4E\ 4A 4c# 4e	.	.	[2cc#\) 2ee_ [2ccc#	.
8.E/L 8.A 8.c# 8.e	.	.	.	.
(16CC#/Jk 16C#	.	.	.	.
=205	=205	=205	=205	=205
*	*	*	*^	*
4FF#/) 4F#	.	.	8cc#\L] 8ee] 8ccc#]	8ryy	.
!	!	!	!LO:TX:b:i:t=espress.	!	!
.	.	.	8b\J 8bb	8ryy	.
4F#\ 4c#	.	.	(8aa/	4a\	.
.	.	.	4cc#/	.	.
4B\ 4f#	.	.	.	4a\	.
.	.	.	8dd#X/	.	.
!!LO:LB:g=original	!	!	!	!	!
=206	=206	=206	=206	=206	=206
.	.	.	8qdd#X/	.	.
4EE/	.	.	8gg#/L)	4r	.
.	.	.	16r	.	.
.	.	.	(16ff#/Jk	.	.
4E\ 4c#	.	.	4.ee/)	4e\	.
4E\ 4F#	.	.	.	4e\	.
.	.	.	8a/	.	.
=207	=207	=207	=207	=207	=207
!	!	!	!LO:TX:b:i:t=leggiero	!	!
4EE/	.	.	(8ee/L	4r	.
.	.	.	8cc#/)	.	.
4E\ 4G#	.	.	(8dd/	4r	.
.	.	.	8b/)	.	.
4E\ 4B	.	.	(8f#/	4d\	.
.	.	.	8g#/J)	.	.
*	*	*	*v	*v	*
=208	=208	=208	=208	=208
.	.	.	(8qd/	.
4AA/ 4E 4A	.	.	8.c#/L) 8.b	.
.	.	.	(16A/Jk	.
4r	.	.	8c#/L	.
.	.	.	8e/	.
4r	.	.	8a/	.
.	.	.	8b/J	.
=209	=209	=209	=209	=209
*	*	*	*^	*
8r	.	.	[<2.e/ [2.ee	2cc#\)	p <
(8AA\L	.	<	.	.	.
8E\	.	.	.	.	.
8A\	.	.	.	.	.
8B\	.	.	.	8dd\L	.
8d\J	.	.	.	8b\J	.
=210	=210	=210	=210	=210	=210
8c#\L	.	.	2.e/_< 2.ee_	4cc#\	.
8A\	.	.	.	.	.
8G#\	.	.	.	8b\L	.
8B\	.	.	.	8dd\	.
8A\	.	.	.	8cc#\	.
8F#\J	.	[[	.	8a\J	.
*	*	*	*v	*v	*
!!LO:LB:g=original	!	!	!	!
=211	=211	=211	=211	=211
8E\L)	.	.	4e/] 4g# 4ee]	[
16r	.	.	.	.
(16E\Jk	.	.	.	.
!LO:TX:b:i:t=marcato	!	!	!	!
4D#X'\)	.	.	4a'\ 4ff#	f
4F#'\	.	.	4a'/ 4b	.
=212	=212	=212	=212	=212
*	*	*	*^	*
8r	.	.	[<2.e/ [2.ee	2cc#\	p
(8AA\L	.	<	.	.	.
8E\	.	.	.	.	.
8A\	.	.	.	.	.
8B\	.	.	.	8dd\L	.
8d\J	.	.	.	8b\J	.
=213	=213	=213	=213	=213	=213
8c#\L	.	.	2.e/_< 2.ee_	4cc#\	.
8A\	.	.	.	.	.
8G#\	.	.	.	8b\L	.
8B\	.	.	.	8dd\	.
8A\	.	.	.	8cc#\	.
8F#\J	.	[	.	8a\J	.
=214	=214	=214	=214	=214	=214
8E\L)	.	.	4e/] 4g# 4ee]	4ryy	.
16r	.	.	.	.	.
(16D#X\Jk	.	.	.	.	.
!LO:TX:b:i:t=marcato	!	!	!	!	!
4F#'\)	.	.	(8cc#/L	4a\	f
.	.	.	8dd#X/)	.	.
4C#'/	.	.	(8ee/	4a\	.
.	.	.	8ff#/J)	.	.
=215	=215	=215	=215	=215	=215
8r	.	.	2.e/ 2.ee	(>2cc#\	p
(8AA\L	.	.	.	.	.
8E\	.	.	.	.	.
8A\	.	.	.	.	.
8B\	.	.	.	8dd\L	.
8d\J	.	.	.	8b\J)	.
!!LO:LB:g=original	!	!	!	!	!
=216	=216	=216	=216	=216	=216
!	!	!	!	!	!LO:HP:b:t=crescendo
8c#\L)	.	.	2.e/ 2.ee	(>2cc#\	<
(8AA\	.	.	.	.	.
8E\	.	.	.	.	.
8A\	.	.	.	.	.
8B\	.	.	.	8dd\L	.
8d\J	.	.	.	8b\J)	.
=217	=217	=217	=217	=217	=217
*^	*	*	*	*	*
8e/L)	[2.A\	.	.	[2.ee/	8cc#\L	.
8d/	.	.	.	.	8b\	.
8c#/	.	.	.	.	8a\	.
8e/	.	.	.	.	8cc#\	.
8d/	.	.	.	.	8b\	.
8c#/J	.	.	.	.	8a\J	.
=218	=218	=218	=218	=218	=218	=218
8e/L	2A\]	.	.	2ee/]	8cc#\L	.
8d/	.	.	.	.	8b\	.
8c#/	.	.	.	.	8a\	.
8e/	.	.	.	.	8cc#\	.
8d/	4r	.	.	4r	8b\	.
8c#/J	.	.	.	.	8a\J	.
*v	*v	*	*	*	*	*
*	*	*	*v	*v	*
=219	=219	=219	=219	=219
4A\ 4e	.	.	4cc#\ 4aa	.
*^	*	*	*	*
4r	4ryy	.	.	4r	.
8.r	4ryy	.	.	8.r	.
16AA/ 16E	.	.	.	16A/ 16c# 16a	ff
*v	*v	*	*	*	*
=220	=220	=220	=220	=220
2.AA;</ 2.E	.	.	2.A;/ 2.c# 2.a	.
==	==	==	==	==
*-	*-	*-	*-	*-
!!!system-decoration: {(s1,s2)}
!!!RDF**kern: > = above
!!!RDF**kern: < = below
!!!RDF**kern: N = linked
!!!ENC: Berenika Jozajtis
!!!END: 2022-03-18
!!!ENC: Natalia Wrzos
!!!END: 2022-03-21
